X:1
%
T:Flowers of Spring [3]
M:C|
L:1/8
R:Reel
S:John Rook music manuscript collection (Waverton, Cumbria, 1840, p. 228)
Z:AK/Fiddler’s Companion
K:C
c2 cf egec|dfdc B2 GB|AFFA BGGB|cedc B2G:|
|:f|egec egec|efge c2c2|dfdB dfdB|dfdc B2G:|
|:f|e2 ge gege|g2c'2 agfe|f2 af afaf|dfdc B2G2:|
|:c'2 ge c'2ge|ac'bd' c'geg|c'2 ge c'2ge|fdge c/c/c c2:|]

